images/location-button.svg

<svg xmlns="http://www.w3.org/2000/svg" viewBox="0 0 383.7 511.1" enable-background="new 0 0 383.7 511.1"><style type="text/css">.st0{fill:#559CB4;}</style><path class="st0" d="M383.2 181.3s-4.7-83.3-56.7-125.3c0 0-54.2-55.8-134.5-56h-.4c-80.2.2-134.4 56-134.4 56-52 42-56.7 125.3-56.7 125.3-7.3 94 65.3 190 65.3 190 27.4 46 102.7 128.7 102.7 128.7 9.5 10.6 20.5 11.2 23.3 11.1 2.8 0 13.9-.6 23.3-11.1 0 0 75.3-82.7 102.7-128.7 0 0 72.7-96 65.4-190zm-191.4 117.2c-59.9 0-108.5-48.6-108.5-108.5s48.6-108.6 108.5-108.6 108.6 48.6 108.6 108.6-48.6 108.5-108.6 108.5z" id="Layer_2"/></svg>

<?xml version="1.0" encoding="utf-8"?>
<!-- Generator: Adobe Illustrator 19.2.1, SVG Export Plug-In . SVG Version: 6.00 Build 0)  -->
<svg version="1.1" xmlns="http://www.w3.org/2000/svg" xmlns:xlink="http://www.w3.org/1999/xlink" x="0px" y="0px"
	 viewBox="0 0 383.7 511.1" style="enable-background:new 0 0 383.7 511.1;" xml:space="preserve">
<style type="text/css">
	.st0{fill:#559CB4;}
</style>
<g id="Layer_1">
</g>
<g id="Layer_2">
	<path class="st0" d="M383.2,181.3c0,0-4.7-83.3-56.7-125.3c0,0-54.2-55.8-134.5-56h-0.4C111.4,0.2,57.2,56,57.2,56
		C5.2,98,0.5,181.3,0.5,181.3c-7.3,94,65.3,190,65.3,190C93.2,417.3,168.5,500,168.5,500c9.5,10.6,20.5,11.2,23.3,11.1
		c2.8,0,13.9-0.6,23.3-11.1c0,0,75.3-82.7,102.7-128.7C317.8,371.3,390.5,275.3,383.2,181.3z M191.8,298.5
		c-59.9,0-108.5-48.6-108.5-108.5S131.9,81.4,191.8,81.4S300.4,130,300.4,190S251.8,298.5,191.8,298.5z"/>
</g>
</svg>
